assets/offering/eldsvada2-grey.svg

<svg width="48" height="48" viewBox="0 0 48 48" fill="none" xmlns="http://www.w3.org/2000/svg">
<g opacity="0.3">
<mask id="mask0" mask-type="alpha" maskUnits="userSpaceOnUse" x="0" y="0" width="48" height="48">
<path fill-rule="evenodd" clip-rule="evenodd" d="M0 0H47.9999V47.9998H0V0Z" fill="white"/>
</mask>
<g mask="url(#mask0)">
<path fill-rule="evenodd" clip-rule="evenodd" d="M48 24C48 37.255 37.255 48 24 48C10.745 48 0 37.255 0 24C0 10.745 10.745 0 24 0C37.255 0 48 10.745 48 24" fill="#FF8A80"/>
</g>
<path fill-rule="evenodd" clip-rule="evenodd" d="M20.5236 10.5459C20.2456 12.0069 19.4026 15.7039 17.6426 18.0909C17.0896 18.9519 16.5236 19.7119 15.9756 20.4459C14.4036 22.5519 13.1626 24.2149 13.1626 27.2369C13.1626 32.6849 18.3286 37.6459 24.0006 37.6459C29.6716 37.6459 34.8376 32.6849 34.8376 27.2369C34.8376 24.5249 31.7916 20.0869 30.5386 18.3769L29.4986 20.9899C29.2816 21.5359 28.7726 21.8759 28.1746 21.8239C27.5916 21.7849 27.1256 21.3919 26.9846 20.8239C26.2096 17.6719 24.3576 12.2839 20.5236 10.5459V10.5459ZM24.0006 38.6455C17.8046 38.6455 12.1626 33.2075 12.1626 27.2365C12.1626 23.8825 13.5576 22.0125 15.1736 19.8475C15.7116 19.1265 16.2676 18.3815 16.8196 17.5235C18.8766 14.7335 19.6346 9.82852 19.6426 9.77952L19.7316 9.18652L20.2996 9.38152C24.9566 10.9855 27.0946 17.0885 27.9556 20.5835C28.0056 20.7885 28.1726 20.8215 28.2436 20.8265C28.2996 20.8285 28.4866 20.8265 28.5686 20.6195L30.2586 16.3745L30.7946 17.0555C31.0016 17.3165 35.8376 23.4935 35.8376 27.2365C35.8376 33.2075 30.1956 38.6455 24.0006 38.6455V38.6455Z" fill="white"/>
<path fill-rule="evenodd" clip-rule="evenodd" d="M23.7822 23.7314L20.2242 27.7634C19.1952 28.8734 18.6562 30.2844 18.6562 31.8524C18.6562 35.0464 21.0513 37.6454 23.9953 37.6454C26.9233 37.6454 29.3392 35.0434 29.3802 31.8454C29.3802 30.3534 28.8232 28.9024 27.8112 27.7644L23.7822 23.7314ZM23.9953 38.6455C20.5003 38.6455 17.6562 35.5985 17.6562 31.8525C17.6562 30.0535 18.3043 28.3635 19.4833 27.0925L23.7372 22.2715L28.5393 27.0795C29.7333 28.4205 30.3802 30.1085 30.3802 31.8525C30.3312 35.6015 27.4673 38.6455 23.9953 38.6455V38.6455Z" fill="white"/>
</g>
</svg>

<svg width="48" height="48" viewBox="0 0 48 48" fill="none" xmlns="http://www.w3.org/2000/svg"><g opacity=".3"><mask id="a" maskUnits="userSpaceOnUse" x="0" y="0" width="48" height="48"><path fill-rule="evenodd" clip-rule="evenodd" d="M0 0h48v48H0V0z" fill="#fff"/></mask><g mask="url(#a)"><path fill-rule="evenodd" clip-rule="evenodd" d="M48 24c0 13.255-10.745 24-24 24S0 37.255 0 24 10.745 0 24 0s24 10.745 24 24" fill="#FF8A80"/></g><path fill-rule="evenodd" clip-rule="evenodd" d="M20.524 10.546c-.278 1.46-1.121 5.158-2.881 7.545-.553.86-1.12 1.62-1.667 2.355-1.572 2.106-2.813 3.769-2.813 6.79 0 5.449 5.166 10.41 10.838 10.41 5.67 0 10.837-4.961 10.837-10.41 0-2.711-3.046-7.15-4.3-8.86l-1.04 2.614c-.216.546-.725.886-1.323.834a1.298 1.298 0 01-1.19-1c-.775-3.152-2.627-8.54-6.461-10.278zM24 38.646c-6.196 0-11.838-5.438-11.838-11.41 0-3.354 1.395-5.224 3.01-7.389.539-.72 1.095-1.466 1.647-2.324 2.057-2.79 2.815-7.694 2.823-7.743l.089-.593.568.195c4.657 1.604 6.795 7.707 7.656 11.202.05.204.217.238.288.242.056.002.243 0 .325-.207l1.69-4.244.536.68c.207.262 5.043 6.439 5.043 10.181 0 5.972-5.642 11.41-11.837 11.41z" fill="#fff"/><path fill-rule="evenodd" clip-rule="evenodd" d="M23.782 23.731l-3.558 4.032c-1.029 1.11-1.568 2.521-1.568 4.09 0 3.193 2.395 5.792 5.34 5.792 2.927 0 5.343-2.602 5.384-5.8a6.147 6.147 0 00-1.569-4.08l-4.029-4.034zm.213 14.914c-3.495 0-6.339-3.047-6.339-6.793 0-1.799.648-3.489 1.827-4.76l4.254-4.82 4.802 4.808c1.194 1.34 1.841 3.029 1.841 4.773-.049 3.748-2.913 6.792-6.385 6.792z" fill="#fff"/></g></svg>
